X: 1
T: The Legacy
R: jig
M: 6/8
L: 1/8
K: Gmaj
~G3 ~B3|~g3 gab|~G3 ~B3|dBA ABA|
~G3 ~B3|~g3 gab|age ege|1 dBA ABA:|2 dBA ABd||
~e3 edB|def gfg|~e3 edB|dBA ABd|
~e3 edB|def ~g3|ege dBA|AGF G3:|

